svg/fluentui-system-icons/ic_fluent_glance_horizontal_sparkles_16_filled.svg

<svg width="16" height="16" viewBox="0 0 16 16" fill="none" xmlns="http://www.w3.org/2000/svg">
<path d="M13.7829 2.21318L13.7982 2.217C13.8572 2.2378 13.9083 2.27637 13.9445 2.3274C13.9806 2.37843 14 2.4394 14 2.50191C14 2.56442 13.9806 2.6254 13.9445 2.67642C13.9083 2.72745 13.8572 2.76602 13.7982 2.78682L13.0328 3.0354C12.8001 3.1127 12.5886 3.24317 12.4152 3.41644C12.2418 3.58971 12.1113 3.80101 12.0339 4.03354L11.7851 4.79839C11.7782 4.81815 11.7692 4.83702 11.7584 4.85473C11.737 4.88988 11.7086 4.92049 11.6746 4.9445C11.6246 4.97991 11.5649 4.99924 11.5037 4.99998L11.5 5C11.4374 5 11.3764 4.98061 11.3254 4.9445C11.2743 4.90839 11.2357 4.85734 11.2149 4.79839L10.9661 4.03354C10.9292 3.92162 10.88 3.81459 10.8197 3.71429C10.7542 3.60557 10.6757 3.50476 10.5855 3.41427C10.4346 3.26288 10.2546 3.14398 10.0568 3.06448C10.0273 3.05263 9.99745 3.04165 9.9672 3.03157L9.20176 2.783C9.14277 2.7622 9.09168 2.72363 9.05554 2.6726C9.01941 2.62157 9 2.5606 9 2.49809C9 2.43558 9.01941 2.3746 9.05554 2.32358C9.09168 2.27255 9.14277 2.23398 9.20176 2.21318L9.9672 1.9646C10.1639 1.89672 10.3449 1.79072 10.5 1.65302C10.5261 1.62983 10.5515 1.60573 10.5761 1.58076C10.7467 1.40761 10.875 1.19736 10.9508 0.966464L11.1996 0.201608C11.2204 0.142657 11.259 0.0916085 11.31 0.0554996C11.3611 0.0193911 11.4221 0 11.4847 0C11.4898 0 11.4949 0.000129223 11.5 0.000387192C11.5572 0.00328255 11.6124 0.0223432 11.6593 0.0554996C11.7104 0.0916085 11.749 0.142657 11.7698 0.201608L12.0186 0.966464C12.0959 1.199 12.2265 1.41029 12.3999 1.58356C12.4549 1.63851 12.5137 1.68915 12.5758 1.73516C12.7096 1.83423 12.8586 1.91182 13.0175 1.9646L13.7829 2.21318ZM15.8263 5.77054L15.214 5.57168C15.0278 5.50984 14.8587 5.40547 14.7199 5.26685C14.5812 5.12823 14.4768 4.9592 14.4149 4.77317L14.2159 4.16129C14.1992 4.11413 14.1683 4.07329 14.1275 4.0444C14.0866 4.01551 14.0378 4 13.9878 4C13.9377 4 13.8889 4.01551 13.848 4.0444C13.8072 4.07329 13.7763 4.11413 13.7597 4.16129L13.5606 4.77317C13.5 4.95789 13.3974 5.12609 13.2609 5.26461C13.1244 5.40313 12.9577 5.50823 12.7738 5.57168L12.1614 5.77054C12.1142 5.78718 12.0733 5.81804 12.0444 5.85886C12.0155 5.89968 12 5.94846 12 5.99847C12 6.04848 12.0155 6.09726 12.0444 6.13808C12.0733 6.1789 12.1142 6.20976 12.1614 6.2264L12.7738 6.42526C12.9603 6.4874 13.1296 6.59225 13.2684 6.73142C13.4071 6.87059 13.5114 7.04024 13.5729 7.22683L13.7719 7.83871C13.7885 7.88587 13.8194 7.92671 13.8603 7.9556C13.9011 7.98449 13.95 8 14 8C14.05 8 14.0989 7.98449 14.1397 7.9556C14.1806 7.92671 14.2115 7.88587 14.2281 7.83871L14.4271 7.22683C14.489 7.0408 14.5935 6.87177 14.7322 6.73315C14.8709 6.59453 15.0401 6.49016 15.2262 6.42832L15.8386 6.22946C15.8858 6.21282 15.9267 6.18196 15.9556 6.14114C15.9845 6.10032 16 6.05154 16 6.00153C16 5.95152 15.9845 5.90274 15.9556 5.86192C15.9267 5.8211 15.8858 5.79024 15.8386 5.7736L15.8263 5.77054ZM2 3.75C2 2.7835 2.7835 2 3.75 2H6.25C7.2165 2 8 2.7835 8 3.75V6.25C8 7.2165 7.2165 8 6.25 8H3.75C2.7835 8 2 7.2165 2 6.25V3.75ZM7 10.75C7 9.7835 7.7835 9 8.75 9H12.25C13.2165 9 14 9.7835 14 10.75V12.25C14 13.2165 13.2165 14 12.25 14H8.75C7.7835 14 7 13.2165 7 12.25V10.75ZM2 10.75C2 9.7835 2.7835 9 3.75 9H4.25C5.2165 9 6 9.7835 6 10.75V12.25C6 13.2165 5.2165 14 4.25 14H3.75C2.7835 14 2 13.2165 2 12.25V10.75Z" fill="#212121"/>
</svg>

<svg xmlns="http://www.w3.org/2000/svg" width="16" height="16"><path d="m13.783 2.213.015.004a.303.303 0 0 1 0 .57l-.765.248a1.577 1.577 0 0 0-1 .999l-.248.764a.295.295 0 0 1-.11.146.302.302 0 0 1-.171.056H11.5a.302.302 0 0 1-.285-.202l-.249-.764a1.58 1.58 0 0 0-.999-1.002l-.765-.249a.302.302 0 0 1 0-.57l.765-.248a1.578 1.578 0 0 0 .984-.999L11.2.202a.302.302 0 0 1 .57 0l.249.764a1.575 1.575 0 0 0 .998.999l.766.248Zm2.043 3.558-.612-.2a1.262 1.262 0 0 1-.8-.798l-.198-.612a.242.242 0 0 0-.456 0l-.2.612a1.26 1.26 0 0 1-.786.799l-.613.199a.242.242 0 0 0 0 .455l.613.2a1.262 1.262 0 0 1 .799.8l.199.613a.241.241 0 0 0 .456 0l.2-.612a1.26 1.26 0 0 1 .798-.799l.613-.199a.242.242 0 0 0 0-.455l-.013-.003ZM2 3.75C2 2.784 2.784 2 3.75 2h2.5C7.216 2 8 2.784 8 3.75v2.5A1.75 1.75 0 0 1 6.25 8h-2.5A1.75 1.75 0 0 1 2 6.25v-2.5Zm5 7C7 9.784 7.784 9 8.75 9h3.5c.966 0 1.75.784 1.75 1.75v1.5A1.75 1.75 0 0 1 12.25 14h-3.5A1.75 1.75 0 0 1 7 12.25v-1.5Zm-5 0C2 9.784 2.784 9 3.75 9h.5C5.216 9 6 9.784 6 10.75v1.5A1.75 1.75 0 0 1 4.25 14h-.5A1.75 1.75 0 0 1 2 12.25v-1.5Z"/></svg>
